X:1
T:Fenesta che lucivi
T:Fenesta che lucivi
T:Guglielmo Cottrau
T:Giulio Genoino
T:Addio fenesta, rèstate ‘nzerrata ca nénna mia mo nun se pò affacciare… Io cchiù nun passarraggio pe’ ‘sta strata: vaco a lo camposanto a passíare! Zi’ parrocchiano mio, ábbece cura: na lampa sempe tienece allummata… The text as sung by Enrico Caruso Fenesta ca lucive 1913                                      
T:by IMSLP - Scritto con MuseScore, un software libero e gratuito: http://musescore.org/it
T:by IMSLP - Scritto con MuseScore, un software libero e gratuito: http://musescore.org/it
T:by IMSLP - Scritto con MuseScore, un software libero e gratuito: http://musescore.org/it
C:Guglielmo Cottrau
Z:by IMSLP - Scritto con MuseScore, un software libero e gratuito: http://musescore.org/it
%%score 1 { 2 | ( 3 4 ) }
L:1/8
Q:1/4=102
M:12/8
K:F
V:1 treble nm="Voice"
V:2 treble nm="Piano"
V:3 bass 
V:4 bass 
V:1
"^Andantino" z4 z2 | z12 | z12 | z12 | z4 z2 z2 z2 z A, | D2 E F2 G A2 A B2 c | %6
w: ||||Fe\-|ne\- stra che lu\- ci\- vie mo non|
 A3- (A2 B) A2 z3 A | A2 E E2 F A2 G GF E | D3- (D2 F/E/) D2 z2 z A, | D2 E F2 G A2 A B2 c | %10
w: lu _ _ ci sign'|è ca Nen\- na mia sta\- ce am\- ma\-|la _ _ _ ta, S'af\-|fac\- cia la so\- rella e me lo|
 A3- (A2 B) A2 z3 A | A2 E E2 F A2 G GFE | D2- (D2 FE) D2 z3 d | %13
w: di _ _ ce Nen\-|nel\- la to\- jaè mor\- tae s'è at\- ter\-|ra _ _ _ ta. Chia\-|
"^con passione" c2 G G A B2 A (Bd3/2) c3/2 | B/ A/ A2- A z A"^trattenendo" A2 G A2 B | %15
w: gne\- va sem\- pe ca dor\- me _ va|so\- la ah! * mo dor\- me co li|
 A2 D E2 F (A3 (A2) G) | F2 z2 z8 | z12 | z2 z2 z"^trattenuto" A A2 G A2 B | %19
w: muor\- te accompa\- gna _ _ _|ta!||mo dor\- me co li|
 A2 D E2 F (A3 A>)GF/E/ | D2 z2 z2!D.C.! |] %21
w: muor\- te accom\- pa\- gna _ _ _ _|ta|
V:2
 (!>![Aa]3- [Aa]2 ^c) | d F,A, DA,F, z G,B, D^CA, | z F,A, DA,F, !>![Aa]3- [Aa]2 ^c | %3
!mf! d!<(! z [Ee] [Ef]2 [Gg]!<)!!mp!!>(! [Aa]3- [Aa]>gf/!>)!e/ | d F,A, DA,F, z F,A, DA,F, | %5
 z F,A, DA,F, z F,A, DA,F, | z F,A, DA,F, z F,A, DA,F, | z D6 z2 ^C3 | z F,A, DA,F, z F,A, DA,F, | %9
 z F,A, DA,F, z F,A, DA,F, | z F,A, DA,F, z F,A, DA,F, | z D6 z2 ^C3 | z F,A, DA,F, z F,A, DA,F, | %13
 z B,=C GCB, z B,E GEB, | z A,C FCA, z A,D EDB, | z F,A, DA,F, z E,G, DE,^C | %16
"^a tempo" z F,A, DA,F, z4 z [dd'] | ([cc']2 g) g2 a b2 (a b"^ten."[dd']>[cc']) | %18
 ([Bb]3 [Aa]2) z z!mf!!<(! G,D EDB,!<)! | z F,A, DA,F, z E,G, DE,^C | z F,A, DA,F, |] %21
V:3
 A,,E,G, A,G,E, | D,3 D,2 z G,,3 [A,,E,]3 | [D,,D,]2 z z z z A,,E,G, A,G,E, | %3
 D,F,A, DA,F, A,,^C,G, A,G,C, | D,2 z2 z2 [D,,D,]2 z2 z2 | [D,,D,]2 z2 z2 z2 [D,,D,]2 z2 | %6
 [D,,D,]2 z2 z2 z2 [D,,D,]2 z2 | %7
 z E,G,[I:staff -1] D[I:staff +1]G,E, z E,G,[I:staff -1] ^C[I:staff +1]G,E, | %8
 [D,,D,]2 z2 z2 z2 [D,,D,]2 z2 | [D,,D,]2 z2 z2 z2 [D,,D,]2 z2 | [C,,D,]2 z2 z2 [D,,D,]2 z2 z2 | %11
 z E,G,[I:staff -1] D[I:staff +1]G,E, z E,G,[I:staff -1] ^C[I:staff +1]G,E, | %12
 [D,,D,]3- [D,,D,]2 z [D,,D,]3- [D,,D,]2 z | [E,,E,]3- [E,,E,]2 z [C,,C,]3- [C,,C,]2 z | %14
 [F,,F,]3- [F,,F,]2 z [G,,,G,,]6 | [A,,,A,,]3- [A,,,A,,]2 z [A,,,A,,]3- [A,,,A,,]2 z | %16
 [xD,]2 z2 z2 [D,,D,] [D,,F,]A, DA,"^con  espressione"F, | E,G,B, CB,G, C,E,B, CB,E, | %18
"^espress." E,G,B, CB,G, [G,,,G,,]6 | [A,,,A,,]3- [A,,,A,,]2 z [A,,,A,,]3- [A,,,A,,]2 z | %20
 [D,,D,]3- [D,,D,]2 z |] %21
V:4
 A,,3 x3 | x12 | x6 A,,3 x3 | D,3 x3 A,,3 x3 | x12 | x12 | x12 | %7
 [A,,,A,,]3 [A,,,A,,]2 z [A,,,A,,]3 [A,,,A,,]2 z | x12 | x12 | x12 | %11
 [A,,,A,,]3- [A,,,A,,]2 z [A,,,A,,]3- [A,,,A,,]2 z | x12 | x12 | x12 | x12 | x12 | E,3 x3 C,3 x3 | %18
 E,3 x9 | x12 | x6 |] %21

